img/logo.svg

<svg width="51" height="47" viewBox="0 0 51 47" version="1.1" xmlns="http://www.w3.org/2000/svg" xmlns:xlink="http://www.w3.org/1999/xlink" xmlns:figma="http://www.figma.com/figma/ns">
<title>Combined Shape</title>
<desc>Created using Figma</desc>
<g id="Canvas" transform="translate(656 -2090)" figma:type="canvas">
<g id="Combined Shape" figma:type="vector-operation">
<use xlink:href="#path0_fill" transform="translate(-656 2090)" fill="#DFE3E6"/>
</g>
</g>
<defs>
<path id="path0_fill" fill-rule="evenodd" d="M 41.8229 46.7956C 40.9945 46.7956 40.3229 46.1169 40.3229 45.2795L 40.3229 6.0864L 26.2021 25.2163C 25.5879 26.0486 24.3463 26.0244 23.7641 25.1689L 8.31165 2.46604C 7.8421 1.77634 8.01477 0.832247 8.69733 0.357882C 9.37982 -0.116728 10.3137 0.0578328 10.7833 0.74753L 25.0493 21.7075L 40.6207 0.61252C 41.4838 -0.556913 43.3229 0.0600301 43.3229 1.51901L 43.3229 43.7634L 47.999 43.7634L 47.9719 1.60788C 47.9713 0.770479 48.6425 0.0912801 49.4709 0.0907918C 50.2993 0.0903035 50.9713 0.768526 50.9719 1.60593L 51 45.2785C 51.0005 46.1162 50.3288 46.7956 49.5 46.7956L 41.8229 46.7956ZM 3 6.70847L 3 43.968L 7.73334 43.968L 7.73334 21.9961C 7.73334 21.1589 8.40491 20.4802 9.23334 20.4802C 10.0618 20.4802 10.7333 21.1589 10.7333 21.9961L 10.7333 45.4841C 10.7333 46.3213 10.0618 47 9.23334 47L 1.5 47C 0.67157 47 0 46.3213 0 45.4841L 0 1.80661C 0 0.315889 1.9054 -0.27957 2.7381 0.950899L 25.1414 34.0549L 34.978 20.8569C 35.4765 20.1882 36.417 20.0544 37.0787 20.5583C 37.7404 21.062 37.8727 22.0124 37.3743 22.6814L 26.2807 37.5656C 25.6633 38.394 24.4238 38.3652 23.8445 37.5092L 3 6.70847Z"/>
</defs>
</svg>

<svg width="51" height="47" viewBox="0 0 51 47" xmlns="http://www.w3.org/2000/svg" xmlns:xlink="http://www.w3.org/1999/xlink" xmlns:figma="http://www.figma.com/figma/ns"><title>Combined Shape</title><desc>Created using Figma</desc><g figma:type="canvas"><use xlink:href="#a" fill="#DFE3E6" figma:type="vector-operation"/></g><defs><path id="a" fill-rule="evenodd" d="M41.823 46.796c-.828 0-1.5-.68-1.5-1.517V6.087l-14.12 19.13a1.49 1.49 0 0 1-2.439-.047L8.312 2.466A1.526 1.526 0 0 1 8.697.358a1.49 1.49 0 0 1 2.086.39l14.266 20.96L40.621.613c.863-1.17 2.702-.553 2.702.906v42.244h4.676l-.027-42.155c0-.838.67-1.517 1.499-1.517.828 0 1.5.678 1.5 1.515L51 45.278c0 .838-.671 1.518-1.5 1.518h-7.677zM3 6.708v37.26h4.733V21.996c0-.837.672-1.516 1.5-1.516.829 0 1.5.679 1.5 1.516v23.488c0 .837-.671 1.516-1.5 1.516H1.5C.672 47 0 46.321 0 45.484V1.807C0 .316 1.905-.28 2.738.95l22.403 33.104 9.837-13.198a1.49 1.49 0 0 1 2.1-.299c.662.504.795 1.454.296 2.123L26.281 37.566a1.49 1.49 0 0 1-2.436-.057L3 6.71z"/></defs></svg>
